src/assets/images/bene14.svg

<svg width="49" height="49" viewBox="0 0 49 49" fill="none" xmlns="http://www.w3.org/2000/svg">
<circle cx="24.5211" cy="24.8258" r="24.0074" fill="url(#paint0_linear_674_13)"/>
<g clip-path="url(#clip0_674_13)">
<path d="M36.7816 21.2898C37.0596 21.2898 37.3262 21.1794 37.5229 20.9828C37.7195 20.7863 37.83 20.5197 37.8301 20.2417V15.9217C37.8301 15.784 37.8031 15.6477 37.7504 15.5205C37.6977 15.3933 37.6204 15.2778 37.5231 15.1805C37.4257 15.0832 37.3101 15.006 37.1829 14.9534C37.0556 14.9009 36.9193 14.8739 36.7816 14.874H32.7782C32.6405 14.874 32.5043 14.9011 32.3771 14.9538C32.2499 15.0065 32.1344 15.0837 32.0371 15.181C31.9398 15.2783 31.8626 15.3939 31.8099 15.521C31.7572 15.6482 31.7301 15.7845 31.7301 15.9221C31.7301 16.0597 31.7572 16.196 31.8099 16.3232C31.8626 16.4503 31.9398 16.5659 32.0371 16.6632C32.1344 16.7605 32.2499 16.8377 32.3771 16.8904C32.5043 16.9431 32.6405 16.9702 32.7782 16.9702H34.162L26.7652 25.7019L26.726 23.0768C26.7229 22.8634 26.6547 22.6561 26.5306 22.4825C26.4065 22.3089 26.2323 22.1773 26.0315 22.1053C25.8306 22.0333 25.6125 22.0243 25.4064 22.0795C25.2002 22.1347 25.0159 22.2515 24.8779 22.4143L15.1933 33.8506C15.0998 33.955 15.0281 34.077 14.9826 34.2095C14.9371 34.3421 14.9186 34.4824 14.9283 34.6222C14.9379 34.762 14.9755 34.8984 15.0388 35.0234C15.1021 35.1484 15.1898 35.2595 15.2967 35.35C15.4037 35.4405 15.5277 35.5087 15.6615 35.5504C15.7952 35.5922 15.936 35.6067 16.0755 35.5931C16.2149 35.5796 16.3502 35.5382 16.4734 35.4714C16.5966 35.4046 16.7051 35.3138 16.7926 35.2043L24.6706 25.9037L24.7098 28.5288C24.7127 28.7422 24.7807 28.9496 24.9047 29.1233C25.0287 29.297 25.2028 29.4287 25.4037 29.5007C25.6046 29.5728 25.8227 29.5817 26.0288 29.5264C26.2349 29.4711 26.4193 29.3542 26.5571 29.1913L35.7339 18.3568V20.2429C35.7344 20.5206 35.8449 20.7867 36.0413 20.983C36.2377 21.1793 36.504 21.2896 36.7816 21.2898Z" fill="white"/>
</g>
<defs>
<linearGradient id="paint0_linear_674_13" x1="24.5211" y1="0.818359" x2="24.5211" y2="48.8332" gradientUnits="userSpaceOnUse">
<stop stop-color="#F4815A"/>
<stop offset="1" stop-color="#F25E53"/>
</linearGradient>
<clipPath id="clip0_674_13">
<rect width="25.4648" height="25.6004" fill="white" transform="translate(12.3691 12.4795)"/>
</clipPath>
</defs>
</svg>

<svg xmlns="http://www.w3.org/2000/svg" width="49" height="49" fill="none"><circle cx="24.521" cy="24.826" r="24.007" fill="url(#a)"/><g clip-path="url(#b)"><path fill="#fff" d="M36.782 21.29a1.05 1.05 0 0 0 1.048-1.048v-4.32a1.05 1.05 0 0 0-1.048-1.048h-4.004a1.048 1.048 0 1 0 0 2.096h1.384l-7.397 8.732-.039-2.625a1.048 1.048 0 0 0-1.848-.663l-9.685 11.437a1.048 1.048 0 1 0 1.6 1.353l7.878-9.3.039 2.625a1.048 1.048 0 0 0 1.847.662l9.177-10.834v1.886a1.05 1.05 0 0 0 1.048 1.047"/></g><defs><linearGradient id="a" x1="24.521" x2="24.521" y1=".818" y2="48.833" gradientUnits="userSpaceOnUse"><stop stop-color="#F4815A"/><stop offset="1" stop-color="#F25E53"/></linearGradient><clipPath id="b"><path fill="#fff" d="M12.37 12.48h25.464v25.6H12.37z"/></clipPath></defs></svg>
